file/lenovo.svg

<svg clip-rule="evenodd" fill-rule="evenodd" stroke-linejoin="round" stroke-miterlimit="1.41421" viewBox="0 0 560 400" xmlns="http://www.w3.org/2000/svg"><g fill="#e2231b" fill-rule="nonzero" transform="matrix(1.34389 0 0 1.34389 11.2236 7.78946)"><path d="m166.502 123.902c-5.857 0-12.52 2.717-16.593 8.153l.004-.01-.004.005.004-7.293h-13.974v50.886h13.971v-28.954c0-5.212 4.04-10.751 11.52-10.751 5.783 0 11.764 4.021 11.764 10.751v28.954h13.974v-31.545c-.001-11.702-8.373-20.196-20.666-20.196z"/><path d="m286.477 124.761-12.634 34.662-12.631-34.662h-15.959l20.935 50.863h15.309l20.939-50.863z"/><path d="m124.818 132.239c-4.693-5.452-11.64-8.336-20.096-8.336-15.364 0-26.95 11.335-26.95 26.306 0 15.355 11.611 26.302 28.488 26.302 9.455 0 19.125-4.481 23.645-9.717l-8.834-6.794c-5.88 4.352-9.242 5.39-14.604 5.39-4.827 0-8.604-1.495-11.269-4.124l35.721-14.819c-.779-5.525-2.874-10.458-6.101-14.208zm-33.425 20.027c-.668-5.195.663-9.262 2.833-12.176 2.378-3.195 6.169-5.07 10.747-5.07 5.038 0 8.857 2.876 10.831 7.118z"/><path d="m44.682 109.541h-14.163v66.103h45.921v-12.831h-31.758z"/><path d="m327.713 123.901c-15.387 0-27.441 11.552-27.441 26.302 0 14.914 11.972 26.297 27.254 26.297 15.387 0 27.438-11.555 27.438-26.297 0-14.917-11.969-26.302-27.251-26.302zm0 40.626c-7.655 0-13.656-6.294-13.656-14.324 0-8.414 5.665-14.325 13.469-14.325 7.656 0 13.656 6.292 13.656 14.325 0 8.248-5.664 14.324-13.469 14.324z"/><path d="m220.137 123.901c-15.389 0-27.441 11.552-27.441 26.302 0 14.914 11.97 26.297 27.253 26.297 15.386 0 27.438-11.555 27.438-26.297.001-14.917-11.971-26.302-27.25-26.302zm0 40.626c-7.656 0-13.656-6.294-13.656-14.324 0-8.414 5.664-14.325 13.469-14.325 7.656 0 13.658 6.292 13.658 14.325-.001 8.248-5.669 14.324-13.471 14.324z"/><path d="m354.613 169.601h2.261v6.041h1.403v-6.041h2.261v-1.284h-5.925z"/><path d="m368.027 168.317-2.211 3.47-2.211-3.47h-1.498v7.325h1.354v-5.208l2.258 3.517h.146l2.259-3.517v5.208h1.356v-7.325z"/></g></svg>

<?xml version="1.0" encoding="UTF-8" standalone="no"?>
<!DOCTYPE svg PUBLIC "-//W3C//DTD SVG 1.1//EN" "http://www.w3.org/Graphics/SVG/1.1/DTD/svg11.dtd">
<svg width="100%" height="100%" viewBox="0 0 560 400" version="1.1" xmlns="http://www.w3.org/2000/svg" xmlns:xlink="http://www.w3.org/1999/xlink" xml:space="preserve" xmlns:serif="http://www.serif.com/" style="fill-rule:evenodd;clip-rule:evenodd;stroke-linejoin:round;stroke-miterlimit:1.41421;">
    <g transform="matrix(1.34389,0,0,1.34389,11.2236,7.78946)">
        <path id="n" d="M166.502,123.902C160.645,123.902 153.982,126.619 149.909,132.055L149.913,132.045L149.909,132.05L149.913,124.757L135.939,124.757L135.939,175.643L149.91,175.643L149.91,146.689C149.91,141.477 153.95,135.938 161.43,135.938C167.213,135.938 173.194,139.959 173.194,146.689L173.194,175.643L187.168,175.643L187.168,144.098C187.167,132.396 178.795,123.902 166.502,123.902Z" style="fill:rgb(226,35,27);fill-rule:nonzero;"/>
        <path id="v" d="M286.477,124.761L273.843,159.423L261.212,124.761L245.253,124.761L266.188,175.624L281.497,175.624L302.436,124.761L286.477,124.761Z" style="fill:rgb(226,35,27);fill-rule:nonzero;"/>
        <path id="e" d="M124.818,132.239C120.125,126.787 113.178,123.903 104.722,123.903C89.358,123.903 77.772,135.238 77.772,150.209C77.772,165.564 89.383,176.511 106.26,176.511C115.715,176.511 125.385,172.03 129.905,166.794L121.071,160C115.191,164.352 111.829,165.39 106.467,165.39C101.64,165.39 97.863,163.895 95.198,161.266L130.919,146.447C130.14,140.922 128.045,135.989 124.818,132.239ZM91.393,152.266C90.725,147.071 92.056,143.004 94.226,140.09C96.604,136.895 100.395,135.02 104.973,135.02C110.011,135.02 113.83,137.896 115.804,142.138L91.393,152.266Z" style="fill:rgb(226,35,27);fill-rule:nonzero;"/>
        <path id="l" d="M44.682,109.541L30.519,109.541L30.519,175.644L76.44,175.644L76.44,162.813L44.682,162.813L44.682,109.541Z" style="fill:rgb(226,35,27);fill-rule:nonzero;"/>
        <path id="o_1_" d="M327.713,123.901C312.326,123.901 300.272,135.453 300.272,150.203C300.272,165.117 312.244,176.5 327.526,176.5C342.913,176.5 354.964,164.945 354.964,150.203C354.964,135.286 342.995,123.901 327.713,123.901ZM327.713,164.527C320.058,164.527 314.057,158.233 314.057,150.203C314.057,141.789 319.722,135.878 327.526,135.878C335.182,135.878 341.182,142.17 341.182,150.203C341.182,158.451 335.518,164.527 327.713,164.527Z" style="fill:rgb(226,35,27);fill-rule:nonzero;"/>
        <path id="o" d="M220.137,123.901C204.748,123.901 192.696,135.453 192.696,150.203C192.696,165.117 204.666,176.5 219.949,176.5C235.335,176.5 247.387,164.945 247.387,150.203C247.388,135.286 235.416,123.901 220.137,123.901ZM220.137,164.527C212.481,164.527 206.481,158.233 206.481,150.203C206.481,141.789 212.145,135.878 219.95,135.878C227.606,135.878 233.608,142.17 233.608,150.203C233.607,158.451 227.939,164.527 220.137,164.527Z" style="fill:rgb(226,35,27);fill-rule:nonzero;"/>
        <path id="t" d="M354.613,169.601L356.874,169.601L356.874,175.642L358.277,175.642L358.277,169.601L360.538,169.601L360.538,168.317L354.613,168.317L354.613,169.601Z" style="fill:rgb(226,35,27);fill-rule:nonzero;"/>
        <path id="m" d="M368.027,168.317L365.816,171.787L363.605,168.317L362.107,168.317L362.107,175.642L363.461,175.642L363.461,170.434L365.719,173.951L365.865,173.951L368.124,170.434L368.124,175.642L369.48,175.642L369.48,168.317L368.027,168.317Z" style="fill:rgb(226,35,27);fill-rule:nonzero;"/>
    </g>
</svg>
